<?xml version="1.0" encoding="UTF-8"?>
<map version="1.10" tiledversion="1.11.0" orientation="orthogonal" renderorder="right-down" width="50" height="50" tilewidth="100" tileheight="100" infinite="0" nextlayerid="8" nextobjectid="1">
 <tileset firstgid="1" source="map.tsx"/>
 <layer id="6" name="Obstacle" width="50" height="50">
  <data encoding="csv">
40,40,40,40,40,40,40,40,40,40,40,40,40,40,40,40,40,40,40,40,40,40,40,40,40,40,40,40,40,40,40,40,40,40,40,40,40,40,40,40,40,40,40,40,40,40,40,40,40,40,
40,0,0,0,0,0,0,0,0,0,0,0,0,0,0,0,0,0,0,0,0,0,2684354600,0,0,2684354600,0,0,0,0,0,0,0,0,0,0,0,0,0,0,0,0,0,0,0,0,0,0,0,40,
40,0,0,0,0,0,0,0,0,0,0,0,0,0,0,0,0,0,0,0,0,0,2684354600,0,0,2684354600,0,0,0,0,0,0,0,0,0,0,0,0,0,0,0,0,0,0,0,0,0,0,0,40,
40,0,0,0,0,0,0,0,0,0,0,0,0,0,0,0,0,0,0,0,0,0,2684354600,0,0,2684354600,0,0,0,0,0,0,0,0,0,0,0,0,0,0,0,0,0,0,0,0,0,0,0,40,
40,0,0,0,0,0,0,0,0,0,0,2684354600,2684354600,2684354600,2684354600,2684354600,2684354600,2684354600,2684354600,2684354600,2684354600,2684354600,2684354600,0,0,2684354600,2684354600,2684354600,2684354600,2684354600,2684354600,2684354600,2684354600,2684354600,2684354600,2684354600,2684354600,2684354600,2684354600,2684354600,2684354600,2684354600,0,0,0,0,0,0,40,40,
40,2684354600,0,0,0,0,0,0,0,0,0,2684354600,0,0,0,0,0,0,0,0,0,0,0,0,0,0,0,0,0,0,0,0,0,0,0,0,0,0,0,0,0,2684354600,0,0,0,0,0,0,0,40,
40,0,0,0,0,0,0,0,2684354600,0,0,2684354600,0,0,0,0,0,0,0,0,0,2684354600,0,0,0,0,0,2684354600,0,0,0,0,0,0,0,0,0,0,0,0,0,2684354600,0,0,0,40,40,0,0,40,
40,0,0,0,0,0,0,0,0,0,0,2684354600,0,0,0,0,0,0,0,0,0,0,0,0,0,0,0,0,0,0,0,0,0,0,0,0,0,0,0,0,0,2684354600,0,0,0,0,0,0,0,40,
40,0,0,0,0,0,0,0,0,0,0,2684354600,0,0,0,0,0,0,0,0,0,0,0,0,0,0,0,0,0,0,0,0,0,0,0,0,0,0,0,0,0,2684354600,0,0,0,0,0,0,0,40,
40,0,0,0,0,0,0,0,0,0,0,2684354600,0,0,0,0,40,40,0,0,0,0,0,0,0,0,0,0,0,0,0,0,0,0,0,0,0,0,0,0,0,2684354600,0,0,0,0,0,0,0,40,
40,0,0,0,0,0,0,0,0,0,0,2684354600,0,0,0,0,0,0,0,0,0,0,0,0,0,0,0,0,0,0,0,0,0,0,0,0,0,0,0,0,0,2684354600,0,0,0,0,0,0,0,40,
40,0,0,0,0,0,0,0,0,0,0,2684354600,0,0,0,0,0,0,0,0,0,0,0,0,0,0,0,0,0,0,0,0,0,0,0,0,0,0,0,0,0,2684354600,0,0,0,0,0,0,0,40,
40,0,0,0,40,0,0,0,0,0,0,2684354600,0,0,0,0,0,0,0,0,0,0,0,0,0,0,0,0,0,0,0,0,0,0,0,0,0,0,0,0,0,2684354600,0,0,0,0,0,0,0,40,
40,0,0,0,0,0,0,0,0,0,0,2684354600,0,0,0,0,0,0,0,0,0,0,0,0,0,0,0,0,0,0,0,0,0,0,0,0,0,0,0,0,0,2684354600,0,0,0,0,0,0,0,40,
40,0,0,0,0,0,0,0,0,0,0,2684354600,0,0,0,0,0,0,0,0,0,0,0,0,0,0,0,0,0,0,0,2684354600,2684354600,2684354600,2684354600,0,0,0,0,0,0,2684354600,0,0,0,0,0,0,0,40,
40,0,0,0,0,0,0,0,0,0,0,2684354600,0,0,0,0,0,0,0,0,0,0,0,0,0,0,0,0,0,0,0,0,2684354600,2684354600,0,0,0,0,0,0,0,2684354600,0,0,0,0,0,0,0,40,
40,0,0,0,0,0,0,0,0,0,0,2684354600,0,0,0,0,0,40,40,40,0,0,0,0,0,0,0,0,0,0,0,0,0,0,0,0,0,0,0,0,0,2684354600,40,0,0,0,0,0,0,40,
40,0,0,0,0,0,0,0,0,0,0,2684354600,0,0,0,0,0,0,0,0,0,0,0,0,0,0,0,0,0,0,0,0,0,0,0,0,0,0,0,0,0,2684354600,0,0,0,0,0,0,0,40,
40,0,0,0,0,0,0,0,0,0,0,2684354600,2684354600,2684354600,2684354600,2684354600,2684354600,2684354600,2684354600,2684354600,2684354600,2684354600,0,0,0,0,40,40,40,40,40,40,40,40,40,40,40,40,40,40,40,40,0,0,0,0,0,0,0,40,
40,0,0,0,0,0,0,0,0,0,0,0,0,0,0,0,0,0,0,0,0,0,0,0,0,0,0,0,0,0,0,0,0,0,0,0,0,0,0,0,0,0,0,0,0,0,0,0,0,40,
40,0,0,0,0,0,0,0,0,0,0,0,0,0,0,0,0,0,0,0,0,0,0,0,0,0,0,0,0,0,0,0,0,0,0,0,0,0,0,0,0,0,0,0,0,0,0,0,0,40,
40,0,0,0,0,0,0,0,0,0,0,0,0,0,0,0,0,0,0,0,0,0,0,0,0,0,0,0,0,0,0,0,0,0,0,0,0,0,0,0,0,0,0,0,0,0,0,0,0,40,
40,0,0,0,0,0,0,0,0,0,0,0,0,0,0,0,0,0,0,0,0,0,0,0,0,0,0,0,0,0,0,0,0,0,0,0,2684354600,0,0,0,0,0,0,0,0,0,0,40,40,40,
40,0,0,0,0,0,0,0,0,0,0,0,0,0,0,0,0,0,0,0,0,0,0,0,0,0,0,0,0,0,0,0,0,0,0,0,0,0,0,0,0,0,0,0,0,0,0,0,0,40,
40,0,0,0,0,0,0,0,0,0,0,0,0,0,0,0,0,0,0,0,0,0,0,0,0,0,0,0,0,0,0,0,0,0,0,0,0,0,0,0,0,0,0,0,0,0,0,0,0,40,
40,0,0,0,0,0,0,0,0,0,0,0,0,0,0,0,0,0,0,0,0,0,0,0,0,0,0,0,0,0,0,0,0,0,0,0,0,0,0,0,0,0,0,0,0,0,0,0,0,40,
40,0,0,0,0,0,0,0,0,0,0,0,0,0,0,0,0,0,0,0,0,0,0,0,0,0,0,0,0,0,0,0,0,0,0,0,0,0,0,0,0,0,0,0,0,0,0,0,0,40,
40,0,0,0,0,0,0,0,0,0,0,0,0,0,0,0,0,0,0,0,0,0,0,0,0,0,0,0,0,0,0,0,0,0,0,0,0,0,0,0,0,0,0,0,0,0,0,0,0,40,
40,0,0,0,0,0,0,0,0,0,0,0,0,0,0,0,0,0,0,0,0,0,0,0,0,0,0,0,0,0,0,0,0,0,0,0,0,0,0,0,0,0,0,0,0,0,0,0,0,40,
40,0,0,0,0,0,0,0,0,0,0,0,0,0,0,0,0,0,0,0,0,0,0,0,0,0,0,0,0,0,0,40,40,40,40,40,40,0,0,0,0,0,0,0,0,0,0,0,0,40,
40,0,0,0,0,0,40,40,40,0,0,0,0,0,0,0,40,40,0,0,0,0,0,0,0,0,0,0,0,0,0,40,40,40,40,40,40,0,0,0,0,0,0,0,0,0,0,0,0,40,
40,0,0,0,0,0,0,40,0,0,0,0,0,0,0,0,0,0,0,0,0,0,0,0,0,0,0,0,0,0,0,0,0,0,0,0,0,0,0,0,0,0,0,0,0,0,0,0,0,40,
40,0,0,0,0,0,0,0,0,0,0,0,0,0,0,0,0,0,0,0,0,0,0,0,0,0,0,0,0,0,0,0,0,0,0,0,0,0,0,0,0,0,0,0,0,0,0,0,0,40,
40,0,0,0,0,0,0,0,0,0,0,40,40,40,40,40,40,40,40,40,40,40,0,0,0,0,40,40,40,40,40,40,40,40,40,40,40,40,40,40,40,40,0,0,0,0,0,0,0,40,
40,0,0,0,0,0,0,0,0,0,0,40,0,0,0,0,0,0,0,0,0,0,0,0,0,0,0,0,0,0,0,0,0,0,0,0,0,0,0,0,0,40,0,0,0,0,0,0,0,40,
40,0,0,0,0,0,0,0,0,0,0,40,0,0,0,0,0,0,0,0,0,2684354600,0,0,0,0,2684354600,0,0,0,0,0,0,0,0,0,0,0,0,0,0,40,0,0,0,0,0,0,0,40,
40,0,0,0,0,0,0,0,0,0,0,40,0,0,0,0,0,0,0,0,0,0,0,0,0,0,0,0,0,0,0,0,0,0,0,0,0,0,0,0,0,40,0,0,0,0,0,0,0,40,
40,0,0,0,0,0,0,0,0,0,0,40,0,0,0,0,0,0,0,0,0,0,0,0,0,0,0,0,0,0,0,0,0,0,0,0,0,0,0,0,0,40,0,0,0,0,0,0,0,40,
40,0,0,0,0,0,0,0,0,0,0,40,0,0,0,0,0,0,0,0,0,0,0,0,0,0,0,0,0,0,0,0,0,0,0,0,0,0,0,0,0,40,0,0,0,0,0,0,0,40,
40,0,0,0,0,0,0,0,0,40,0,40,0,0,0,0,0,0,0,0,0,0,0,0,0,0,0,0,0,0,0,0,0,0,0,0,0,0,0,0,0,40,0,0,0,0,0,0,0,40,
40,0,0,0,0,0,0,0,0,0,0,40,0,0,0,0,0,0,0,0,0,0,0,0,0,0,0,0,0,0,0,0,0,0,0,0,0,0,0,0,0,40,0,0,0,0,0,0,0,40,
40,0,0,0,0,0,0,0,0,0,0,40,0,0,0,0,0,0,0,0,0,0,0,0,0,0,0,0,0,0,0,0,0,0,0,0,0,0,0,0,0,40,0,2684354600,0,0,0,0,0,40,
40,0,0,0,0,40,0,0,0,0,0,40,0,0,0,0,0,40,40,40,0,0,0,0,0,0,0,0,0,40,40,40,40,40,40,40,40,0,0,0,0,40,0,0,0,0,0,0,0,40,
40,0,0,0,0,0,0,0,0,0,0,40,0,0,0,0,0,0,0,0,0,0,0,0,0,0,0,0,0,0,40,40,40,40,40,40,0,0,0,0,0,40,0,0,0,0,40,40,0,40,
40,0,0,0,0,0,0,0,0,0,0,40,40,40,40,40,40,40,40,40,40,40,0,0,0,0,0,0,0,0,0,40,40,40,40,0,0,0,0,0,0,40,0,0,0,0,0,0,0,40,
40,0,0,0,0,0,0,0,0,0,0,0,0,0,0,0,0,0,0,0,0,0,0,0,0,0,40,40,40,40,40,40,40,40,40,40,40,40,40,40,40,40,0,0,0,0,0,0,0,40,
40,0,0,0,0,0,0,0,0,0,0,0,0,0,0,0,0,0,0,0,0,0,0,0,0,0,0,0,0,0,0,0,0,0,0,0,0,0,0,0,0,0,0,0,0,0,0,0,0,40,
40,0,0,0,0,0,0,0,0,0,0,0,0,0,0,0,0,0,0,0,0,0,0,0,0,0,0,0,0,0,0,0,0,0,0,0,0,0,0,0,0,0,0,0,0,0,0,0,0,40,
40,0,0,0,0,0,0,0,0,0,0,0,0,0,0,0,0,0,0,0,0,0,0,0,0,0,0,0,0,0,0,0,0,0,0,0,40,0,0,0,0,0,0,0,0,0,0,0,0,40,
40,40,40,40,40,40,40,40,40,40,40,40,40,40,40,40,40,40,40,40,40,40,40,40,40,40,40,40,40,40,40,40,40,40,40,40,40,40,40,40,40,40,40,40,40,40,40,40,40,40
</data>
 </layer>
 <layer id="1" name="地面" width="50" height="50">
  <data encoding="csv">
482,483,482,483,482,483,482,483,482,483,482,483,482,483,482,483,482,483,482,483,482,483,235,236,235,236,482,483,482,483,482,483,482,483,482,483,482,483,482,483,482,482,483,482,483,482,483,482,483,482,
522,523,522,523,522,523,522,523,522,523,522,523,522,523,522,523,522,523,522,523,522,523,275,276,275,276,522,523,522,523,522,523,522,523,522,523,522,523,522,523,522,482,483,482,483,482,483,482,483,482,
482,483,482,483,482,483,482,483,482,483,482,483,482,483,482,483,482,483,482,483,482,483,315,316,315,316,482,483,482,483,482,483,482,483,482,483,482,483,482,483,482,522,523,522,523,522,523,522,523,522,
522,523,522,523,522,523,522,523,522,523,522,523,522,523,522,523,522,523,522,523,522,523,355,356,355,356,522,523,522,523,522,523,522,523,522,523,522,523,522,523,522,482,483,482,483,482,483,482,483,482,
482,483,482,483,482,483,482,483,482,483,482,483,482,483,482,483,482,483,482,483,482,483,395,396,395,396,482,483,482,483,482,483,482,483,482,483,482,483,482,483,482,522,523,522,523,522,523,522,523,522,
482,483,482,483,482,483,482,483,482,483,482,483,202,202,202,202,202,202,202,202,202,202,235,236,235,236,235,236,237,238,239,235,236,237,238,239,235,236,237,238,239,482,483,482,483,482,483,482,483,482,
522,523,522,523,522,523,522,523,522,523,522,523,202,202,202,202,202,202,202,202,202,202,275,276,275,276,275,276,277,278,279,275,276,277,278,279,275,276,277,278,279,522,523,522,523,522,523,522,523,522,
482,483,482,483,482,483,482,483,482,483,482,483,202,202,202,202,202,202,202,202,202,202,315,316,315,316,315,316,317,318,319,315,316,317,318,319,315,316,317,318,319,482,483,482,483,482,483,482,483,482,
522,523,522,523,522,523,522,523,522,523,522,523,202,202,202,202,202,202,202,202,202,202,355,356,355,356,355,356,357,358,359,355,356,357,358,359,355,356,357,358,359,522,523,522,523,522,523,522,523,522,
482,483,482,483,482,483,482,483,482,483,482,483,202,202,202,202,202,202,202,202,202,202,395,396,395,396,395,396,397,398,399,395,396,397,398,399,395,396,397,398,399,482,483,482,483,482,483,482,483,482,
522,523,522,523,522,523,522,523,522,523,522,523,202,202,202,202,202,202,202,202,202,202,235,236,235,236,235,236,237,238,239,235,236,237,238,239,235,236,237,238,239,522,523,522,523,522,523,522,523,522,
482,483,482,483,482,483,482,483,482,483,482,483,202,202,202,202,202,202,202,202,202,202,275,276,275,276,275,276,277,278,279,275,276,277,278,279,275,276,277,278,279,482,483,482,483,482,483,482,483,482,
522,523,522,523,522,523,522,523,522,523,522,523,202,202,202,202,202,202,202,202,202,202,315,316,315,316,315,316,317,318,319,315,316,317,318,319,315,316,317,318,319,522,523,522,523,522,523,522,523,522,
482,483,482,483,482,483,482,483,482,483,482,483,202,202,202,202,202,202,202,202,202,202,355,356,355,356,355,356,357,358,359,355,356,357,358,359,355,356,357,358,359,482,483,482,483,482,483,482,483,482,
522,523,522,523,522,523,522,523,522,523,522,523,202,202,202,202,202,202,202,202,202,202,395,396,395,396,395,396,397,398,399,395,396,397,398,399,395,396,397,398,399,522,523,522,523,522,523,522,523,522,
482,483,482,483,482,483,482,483,482,483,482,483,202,202,202,202,202,202,202,202,202,202,235,236,235,236,235,236,237,238,239,235,236,237,238,239,235,236,237,238,239,482,483,482,483,482,483,482,483,482,
522,523,522,523,522,523,522,523,522,523,522,523,202,202,202,202,202,202,202,202,202,202,275,276,275,276,275,276,277,278,279,275,276,277,278,279,275,276,277,278,279,522,523,522,523,522,523,522,523,522,
482,483,482,483,482,483,482,483,482,483,482,483,202,202,202,202,202,202,202,202,202,202,315,316,315,316,315,316,317,318,319,315,316,317,318,319,315,316,317,318,319,482,483,482,483,482,483,482,483,482,
522,523,522,523,522,523,522,523,522,523,522,523,202,202,202,202,202,202,202,202,202,202,355,356,355,356,355,356,357,358,359,355,356,357,358,359,355,356,357,358,359,522,523,522,523,522,523,522,523,522,
482,483,482,483,482,483,482,483,482,483,482,483,322,323,322,323,322,323,322,323,322,323,395,396,395,396,322,323,322,323,322,323,322,323,322,323,322,323,322,323,322,482,483,482,483,482,483,482,483,482,
522,523,522,523,522,523,522,523,522,523,522,523,362,363,362,363,362,363,362,363,362,363,235,236,235,236,362,363,362,363,362,363,362,363,362,363,362,363,362,363,362,522,523,522,523,522,523,522,523,522,
482,483,482,483,482,483,482,483,482,483,482,483,322,323,322,323,322,323,322,323,322,323,275,276,275,276,322,323,322,323,322,323,322,323,322,323,322,323,322,323,322,482,483,482,483,482,483,482,483,482,
522,523,522,523,522,523,522,523,522,523,522,523,362,363,362,363,362,363,362,363,362,363,315,316,315,316,362,363,362,363,362,363,362,363,362,363,362,363,362,363,362,522,523,522,523,522,523,522,523,522,
482,483,482,483,482,483,482,483,482,483,482,483,322,323,322,323,322,323,322,323,322,323,355,356,355,356,322,323,322,323,322,323,322,323,322,323,322,323,322,323,322,482,483,482,483,482,483,482,483,482,
522,523,522,523,522,523,522,523,522,523,522,523,362,363,362,363,362,363,362,363,362,363,395,396,395,396,362,363,362,363,362,363,362,363,362,363,362,363,362,363,362,522,523,522,523,522,523,522,523,522,
482,483,482,483,482,483,482,483,482,483,482,483,322,323,322,323,322,323,322,323,322,323,235,236,235,236,322,323,322,323,322,323,322,323,322,323,322,323,322,323,322,482,483,482,483,482,483,482,483,482,
522,523,522,523,522,523,522,523,522,523,522,523,362,363,362,363,362,363,362,363,362,363,275,276,275,276,362,363,362,363,362,363,362,363,362,363,362,363,362,363,362,522,523,522,523,522,523,522,523,522,
482,483,482,483,482,483,482,483,482,483,482,483,322,323,322,323,322,323,322,323,322,323,315,316,315,316,322,323,322,323,322,323,322,323,322,323,322,323,322,323,322,482,483,482,483,482,483,482,483,482,
522,523,522,523,522,523,522,523,522,523,522,523,362,363,362,363,362,363,362,363,362,363,355,356,355,356,362,363,362,363,362,363,362,363,362,363,362,363,362,363,362,522,523,522,523,522,523,522,523,522,
482,483,482,483,482,483,482,483,482,483,482,483,322,323,322,323,322,323,322,323,322,323,395,396,395,396,322,323,322,323,322,323,322,323,322,323,322,323,322,323,322,482,483,482,483,482,483,482,483,482,
522,523,522,523,522,523,522,523,522,523,522,523,362,363,362,363,362,363,362,363,362,363,235,236,235,236,362,363,362,363,362,363,362,363,362,363,362,363,362,363,362,522,523,522,523,522,523,522,523,522,
482,483,482,483,482,483,482,483,482,483,482,483,322,323,322,323,322,323,322,323,322,323,275,276,275,276,322,323,322,323,322,323,322,323,322,323,322,323,322,323,322,482,483,482,483,482,483,482,483,482,
522,523,522,523,522,523,522,523,522,523,522,523,362,363,362,363,362,363,362,363,362,363,315,316,315,316,362,363,362,363,362,363,362,363,362,363,362,363,362,363,362,522,523,522,523,522,523,522,523,522,
482,483,482,483,482,483,482,483,482,483,482,483,322,323,322,323,322,323,322,323,322,323,355,356,355,356,322,323,322,323,322,323,322,323,322,323,322,323,322,323,322,482,483,482,483,482,483,482,483,482,
522,523,522,523,522,523,522,523,522,523,522,523,202,202,202,202,202,202,202,202,202,202,395,396,395,396,235,236,237,238,239,235,236,237,238,239,235,236,237,238,239,522,523,522,523,522,523,522,523,522,
482,483,482,483,482,483,482,483,482,483,482,483,202,202,202,202,202,202,202,202,202,202,235,236,235,236,275,276,277,278,279,275,276,277,278,279,275,276,277,278,279,482,483,482,483,482,483,482,483,482,
522,523,522,523,522,523,522,523,522,523,522,523,202,202,202,202,202,202,202,202,202,202,275,276,275,276,315,316,317,318,319,315,316,317,318,319,315,316,317,318,319,522,523,522,523,522,523,522,523,522,
482,483,482,483,482,483,482,483,482,483,482,483,202,202,202,202,202,202,202,202,202,202,315,316,315,316,355,356,357,358,359,355,356,357,358,359,355,356,357,358,359,482,483,482,483,482,483,482,483,482,
522,523,522,523,522,523,522,523,522,523,522,523,202,202,202,202,202,202,202,202,202,202,355,356,355,356,395,396,397,398,399,395,396,397,398,399,395,396,397,398,399,522,523,522,523,522,523,522,523,522,
482,483,482,483,482,483,482,483,482,483,482,483,202,202,202,202,202,202,202,202,202,202,395,396,395,396,235,236,237,238,239,235,236,237,238,239,235,236,237,238,239,482,483,482,483,482,483,482,483,482,
522,523,522,523,522,523,522,523,522,523,522,523,202,202,202,202,202,202,202,202,202,202,235,236,235,236,275,276,277,278,279,275,276,277,278,279,275,276,277,278,279,522,523,522,523,522,523,522,523,522,
482,483,482,483,482,483,482,483,482,483,482,483,202,202,202,202,202,202,202,202,202,202,275,276,275,276,315,316,317,318,319,315,316,317,318,319,315,316,317,318,319,482,483,482,483,482,483,482,483,482,
522,523,522,523,522,523,522,523,522,523,522,523,202,202,202,202,202,202,202,202,202,202,315,316,315,316,355,356,357,358,359,355,356,357,358,359,355,356,357,358,359,522,523,522,523,522,523,522,523,522,
482,483,482,483,482,483,482,483,482,483,482,483,202,202,202,202,202,202,202,202,202,202,355,356,355,356,395,396,397,398,399,395,396,397,398,399,395,396,397,398,399,482,483,482,483,482,483,482,483,482,
522,523,522,523,522,523,522,523,522,523,522,523,202,202,202,202,202,202,202,202,202,202,395,396,395,396,235,236,237,238,239,235,236,237,238,239,235,236,237,238,239,522,523,522,523,522,523,522,523,522,
482,483,482,483,482,483,482,483,482,483,482,483,202,202,202,202,202,202,202,202,202,202,235,236,235,236,275,276,277,278,279,275,276,277,278,279,275,276,277,278,279,482,483,482,483,482,483,482,483,482,
522,523,522,523,522,523,522,523,522,523,522,523,482,483,482,483,482,483,482,483,482,483,275,276,275,276,482,483,482,483,482,483,482,483,482,483,482,483,482,483,482,483,523,522,523,522,523,522,523,522,
482,483,482,483,482,483,482,483,482,483,482,483,522,523,522,523,522,523,522,523,522,523,315,316,315,316,522,523,522,523,522,523,522,523,522,523,522,523,522,523,522,523,483,482,483,482,483,482,483,482,
522,523,522,523,522,523,522,523,522,523,522,523,482,483,482,483,482,483,482,483,482,483,355,356,355,356,482,483,482,483,482,483,482,483,482,483,482,483,482,483,482,483,523,522,523,522,523,522,523,522,
482,483,482,483,482,483,482,483,482,483,482,483,522,523,522,523,522,523,522,523,522,523,395,396,395,396,522,523,522,523,522,523,522,523,522,523,522,523,522,523,522,523,483,482,483,482,483,482,483,482
</data>
 </layer>
 <layer id="2" name="低层物品" width="50" height="50">
  <data encoding="csv">
0,0,0,0,0,0,0,0,0,0,0,0,0,0,0,0,0,0,0,0,0,121,0,0,0,0,0,0,0,0,0,0,0,0,0,0,0,0,0,0,0,0,0,0,0,0,0,0,0,0,
0,0,0,0,0,0,0,0,0,0,0,0,0,0,0,0,0,0,0,0,0,0,0,0,0,0,0,0,0,0,0,0,0,0,0,0,151,152,0,0,0,0,0,0,0,0,0,0,0,0,
0,0,0,0,0,122,0,0,0,0,0,0,0,0,0,0,0,0,0,0,0,0,0,0,0,0,0,0,0,0,0,0,0,0,0,0,191,192,0,0,0,0,0,0,0,0,0,0,0,0,
0,0,0,0,0,0,0,0,0,0,0,0,0,0,0,0,0,0,0,0,0,0,0,0,0,0,0,0,0,0,0,0,0,0,0,0,0,0,0,0,0,0,0,0,0,0,0,0,0,0,
0,0,0,0,0,0,0,0,0,0,0,0,0,0,214,0,0,0,0,214,0,0,0,0,0,0,0,0,0,0,0,214,0,0,0,0,0,0,214,0,0,0,0,0,0,0,0,0,424,0,
0,424,0,0,0,0,0,0,0,0,0,0,0,0,254,0,0,0,0,254,0,0,0,0,0,0,0,0,0,0,0,254,0,0,0,0,0,0,254,0,0,0,0,0,0,0,0,0,0,0,
0,0,0,0,0,0,0,0,424,0,0,0,0,0,0,0,0,0,0,0,0,425,0,0,0,0,0,425,0,0,0,0,0,0,0,0,0,0,0,0,0,0,0,0,0,185,186,0,0,0,
0,0,0,0,0,0,0,0,0,0,0,0,0,0,0,0,0,0,0,0,0,0,0,0,0,0,0,0,0,0,0,0,0,0,0,0,0,0,0,0,0,0,0,0,0,0,0,0,0,0,
0,0,0,0,0,0,0,0,0,0,0,0,0,0,0,0,0,0,0,0,0,0,0,0,0,0,0,0,0,0,252,253,0,0,0,0,0,122,0,0,0,0,0,0,0,0,0,0,0,0,
0,0,0,0,0,0,0,0,0,0,0,0,0,0,0,0,110,111,0,0,0,0,0,0,0,0,0,0,0,0,0,0,0,0,0,0,0,0,0,0,0,0,0,0,0,0,0,0,0,0,
0,0,0,0,0,0,0,0,0,0,0,0,0,0,0,122,0,0,0,0,0,0,0,0,0,0,0,0,0,0,0,0,0,0,0,0,0,0,0,0,0,0,0,0,0,0,0,0,0,0,
0,0,0,0,0,0,0,0,0,0,0,0,0,0,0,0,0,0,0,0,0,0,0,0,0,0,0,0,0,0,0,0,0,0,0,0,0,0,0,0,0,0,0,0,0,0,0,0,0,0,
0,0,0,182,183,184,0,0,0,0,122,0,0,0,0,0,0,0,0,0,0,0,0,0,0,0,0,0,0,0,0,0,0,0,0,0,0,0,0,0,0,0,0,0,0,0,0,0,0,0,
0,0,0,0,0,0,0,0,0,0,0,0,0,0,0,0,0,0,0,0,0,0,0,0,0,0,0,0,0,0,0,0,0,0,0,0,0,0,0,0,0,0,0,0,0,0,0,0,0,0,
0,0,0,0,0,0,0,0,0,0,0,0,0,0,0,0,0,0,0,0,0,0,0,0,0,0,0,0,0,0,0,378,379,380,381,0,0,0,0,0,0,0,0,0,0,0,0,0,0,0,
0,0,0,0,0,0,0,0,0,0,0,0,0,0,0,0,0,0,0,0,0,0,0,0,0,0,0,0,0,0,0,418,419,420,421,0,0,0,151,152,0,0,0,0,0,0,0,0,0,0,
0,0,0,0,0,0,0,0,0,0,0,0,0,0,0,0,0,387,388,389,0,0,0,0,0,0,0,0,123,0,0,0,0,0,0,0,0,0,191,192,0,0,92,0,0,0,0,0,122,0,
0,0,0,0,0,0,0,0,0,0,0,0,0,0,0,0,0,0,0,0,0,0,0,0,0,0,0,0,0,0,0,0,0,0,0,0,0,0,0,0,0,0,132,0,0,0,0,0,0,0,
0,0,151,152,0,0,0,0,0,0,0,0,0,0,0,214,0,0,0,214,0,0,0,0,0,0,0,0,0,0,0,214,0,0,0,0,0,0,214,0,0,0,0,0,0,0,0,0,0,0,
0,0,191,192,0,0,0,0,0,0,0,0,0,0,0,254,0,0,0,254,0,0,0,0,0,0,0,0,0,0,0,254,0,0,0,0,0,0,254,0,0,0,0,0,0,0,0,0,0,0,
0,0,0,0,0,0,0,0,0,0,0,0,0,0,0,0,0,0,0,0,0,0,0,0,0,0,0,0,0,0,0,0,0,0,0,0,0,0,0,0,0,0,0,0,0,0,0,0,0,0,
0,0,0,0,0,0,0,0,0,0,0,0,0,0,0,0,0,0,0,0,0,0,0,0,0,0,0,0,0,0,0,0,0,0,0,0,0,0,0,0,0,0,0,0,0,0,0,0,0,0,
0,0,0,0,0,0,0,0,0,0,0,0,0,0,0,0,0,0,0,0,0,0,0,0,0,0,0,0,0,252,253,0,0,0,0,0,424,0,0,0,121,0,0,0,0,0,0,110,111,0,
0,0,0,0,0,123,0,0,0,0,0,0,0,0,0,0,252,253,0,0,0,0,0,0,0,0,0,0,0,0,0,0,0,0,0,0,0,0,0,0,0,0,0,0,0,0,0,0,0,0,
0,0,0,0,0,0,0,0,0,0,0,0,0,0,0,0,0,0,0,0,0,0,0,0,0,0,0,0,0,0,0,0,0,0,0,0,0,0,0,0,0,0,0,0,0,0,0,0,0,0,
0,0,0,0,0,0,0,0,0,0,0,0,0,0,0,0,0,0,0,0,0,0,0,0,0,0,0,0,0,0,0,0,0,0,0,0,0,0,0,0,0,0,0,0,0,0,0,0,0,0,
252,253,0,0,0,0,0,0,0,0,0,0,0,0,0,0,0,0,0,0,0,0,0,0,0,0,0,0,0,0,0,0,0,0,0,0,0,0,0,0,0,0,0,0,0,0,0,0,0,0,
0,0,0,0,0,0,0,0,0,0,0,0,0,0,0,0,0,0,0,0,0,0,0,0,0,0,0,0,0,0,0,0,0,0,0,0,0,0,0,0,0,0,0,0,0,0,0,0,0,0,
0,0,0,0,0,0,0,0,0,0,0,0,0,0,0,0,0,0,0,0,0,0,0,0,0,0,0,0,0,0,0,0,0,0,0,0,0,0,0,0,0,0,0,0,0,0,0,0,0,0,
0,0,0,0,0,0,0,0,0,0,0,0,0,0,0,0,0,0,0,0,0,0,0,0,0,0,0,0,0,0,0,206,207,208,209,210,211,0,0,0,0,0,0,0,0,0,0,0,151,152,
0,0,0,0,0,0,0,0,0,0,0,0,0,0,0,178,179,180,181,0,0,0,0,0,0,0,0,0,0,0,0,246,247,248,249,250,251,0,0,0,0,0,0,0,0,0,0,0,191,192,
0,0,0,0,0,0,342,343,344,0,0,0,0,0,0,0,0,0,0,0,0,0,0,0,0,0,0,0,0,0,0,0,0,0,0,0,0,0,0,123,0,0,0,0,0,0,0,0,0,0,
0,0,0,0,0,0,0,0,0,0,0,0,0,0,0,0,0,0,0,0,0,0,0,0,0,0,0,0,0,0,0,0,0,0,0,0,0,0,0,0,0,0,0,0,0,0,0,0,122,0,
0,0,0,0,0,0,0,0,0,0,0,0,0,0,0,214,0,0,0,214,0,0,0,0,0,0,0,0,0,0,0,214,0,0,0,0,0,0,214,0,0,0,0,0,0,0,0,0,0,0,
0,0,122,0,0,0,0,0,0,0,0,0,0,0,0,254,0,0,0,254,0,0,0,0,0,0,0,0,0,0,0,254,0,0,0,0,0,0,254,0,0,0,0,0,0,0,0,0,0,0,
0,0,0,0,0,0,0,0,0,0,0,0,0,0,0,0,0,0,0,0,0,425,0,0,0,0,425,0,0,0,0,0,0,0,0,0,0,0,0,0,0,0,0,0,0,0,0,0,0,0,
0,0,0,0,0,0,0,0,0,0,0,0,0,0,0,0,0,0,0,0,0,0,0,0,0,0,0,0,0,0,0,0,0,0,0,0,0,0,0,0,0,0,252,253,0,0,0,0,0,0,
0,0,0,0,0,0,0,0,0,0,0,0,0,0,0,0,0,0,0,0,0,0,0,0,0,0,0,0,123,0,0,0,0,0,0,0,0,0,252,253,0,0,0,0,0,0,0,0,0,0,
0,0,0,0,0,0,0,0,0,0,0,0,0,0,0,0,0,0,0,0,0,0,0,0,0,0,0,0,0,0,0,0,0,0,0,0,0,0,0,0,0,0,0,0,0,0,0,0,0,0,
0,0,0,0,0,0,0,0,0,424,0,0,0,252,253,0,0,0,0,0,0,0,0,0,0,0,0,0,0,0,0,0,0,0,0,0,0,0,0,0,0,0,0,0,0,0,0,0,0,0,
0,0,0,0,0,0,0,0,0,0,0,0,0,0,0,0,0,0,0,0,0,0,0,0,0,0,0,0,0,0,0,0,0,0,0,0,0,0,0,0,0,0,0,0,0,0,0,0,0,0,
0,0,0,0,0,0,0,0,0,0,0,0,0,0,0,0,0,0,0,0,0,0,0,0,0,0,0,0,0,0,0,0,0,0,0,0,0,0,0,123,0,0,0,424,0,0,0,0,0,0,
0,0,0,0,182,183,184,0,0,0,0,0,0,0,0,0,0,387,388,389,0,0,0,0,0,0,0,0,0,659,660,661,662,663,664,665,666,0,0,0,0,0,0,0,0,0,0,0,0,0,
0,0,0,0,0,0,0,0,0,0,0,0,0,0,0,0,0,0,0,0,0,0,0,0,0,0,0,0,0,699,700,701,702,703,704,705,706,0,0,0,0,0,0,0,0,0,185,186,0,0,
0,0,0,0,0,0,0,0,0,0,0,0,0,0,0,214,0,0,0,214,0,0,0,0,0,0,0,0,0,739,740,741,742,743,744,745,746,0,0,0,0,0,0,0,0,0,0,0,0,0,
0,0,151,152,0,0,0,0,0,0,0,0,0,0,0,254,0,0,0,254,0,0,0,0,0,0,0,0,0,0,0,214,782,783,784,0,0,0,214,0,0,0,0,0,0,0,0,0,0,0,
0,0,191,192,0,0,0,0,0,0,0,0,0,0,0,0,0,0,0,0,0,0,0,0,0,0,0,0,0,0,0,254,0,0,0,0,0,0,254,0,0,0,0,0,0,0,0,0,252,253,
0,0,0,0,0,0,0,0,0,0,0,0,123,0,0,0,0,0,0,0,0,0,0,0,0,0,0,0,0,0,0,0,0,0,0,0,0,0,0,0,0,0,0,0,0,0,0,0,0,0,
0,0,0,0,0,0,0,0,0,0,0,0,0,0,0,0,0,0,0,0,0,0,0,0,0,0,0,0,0,0,0,0,0,0,0,112,113,114,0,0,0,0,0,123,0,0,0,0,0,0,
0,0,122,0,0,0,0,0,0,0,0,0,0,0,0,0,112,113,114,0,0,305,0,0,0,0,305,0,0,0,0,0,0,0,0,0,0,0,0,0,0,0,0,0,0,0,0,0,0,122
</data>
 </layer>
 <layer id="3" name="墙壁" width="50" height="50">
  <data encoding="csv">
0,0,0,0,0,0,0,0,0,0,0,0,0,0,0,0,0,0,0,0,0,0,85,0,0,2147483733,0,0,0,0,0,0,0,0,0,0,0,0,0,0,0,0,0,0,0,0,0,0,0,0,
0,0,0,0,0,0,0,0,0,0,0,0,0,0,0,0,0,0,0,0,0,0,85,0,0,2147483733,0,0,0,0,0,0,0,0,0,0,0,0,0,0,0,0,0,0,0,0,0,0,0,0,
0,0,0,0,0,0,0,0,0,0,0,0,0,0,0,0,0,0,0,0,0,0,85,0,0,2147483733,0,0,0,0,0,0,0,0,0,0,0,0,0,0,0,0,0,0,0,0,0,0,0,0,
0,0,0,0,0,0,0,0,0,0,0,0,2,2,2,2,2,2,2,2,2,2,85,0,0,2147483733,2,2,2,2,2,2,2,2,2,2,2,2,2,2,2,4,0,0,0,0,0,0,0,0,
0,0,0,0,0,0,0,0,0,0,0,2147483692,42,42,42,42,42,42,42,42,42,42,125,0,0,2147483692,42,42,42,42,42,42,42,42,42,42,42,42,42,42,42,44,0,0,0,0,0,0,0,0,
0,0,0,0,0,0,0,0,0,0,0,2147483732,82,82,82,82,82,82,82,82,82,82,165,0,0,2147483732,82,82,82,82,82,82,82,82,82,82,82,82,82,82,82,84,0,0,0,0,0,0,0,0,
0,0,0,0,0,0,0,0,0,0,0,3221225557,0,0,0,0,0,0,0,0,0,0,0,0,0,0,0,0,0,0,0,0,0,0,0,0,0,0,0,0,0,85,0,0,0,0,0,0,0,0,
0,0,0,0,0,0,0,0,0,0,0,3221225557,0,0,0,0,0,0,0,0,0,0,0,0,0,0,0,0,0,0,0,0,0,0,0,0,0,0,0,0,0,85,0,0,0,0,0,0,0,0,
0,0,0,0,0,0,0,0,0,0,0,3221225557,0,0,0,0,0,0,0,0,0,0,0,0,0,0,0,0,0,0,0,0,0,0,0,0,0,0,0,0,0,85,0,0,0,0,0,0,0,0,
0,0,0,0,0,0,0,0,0,0,0,3221225557,0,0,0,0,0,0,0,0,0,0,0,0,0,0,0,0,0,0,0,0,0,0,0,0,0,0,0,0,0,85,0,0,0,0,0,0,0,0,
0,0,0,0,0,0,0,0,0,0,0,3221225557,0,0,0,0,0,0,0,0,0,0,0,0,0,0,0,0,0,0,0,0,0,0,0,0,0,0,0,0,0,85,0,0,0,0,0,0,0,0,
0,0,0,0,0,0,0,0,0,0,0,3221225557,0,0,0,0,0,0,0,0,0,0,0,0,0,0,0,0,0,0,0,0,0,0,0,0,0,0,0,0,0,85,0,0,0,0,0,0,0,0,
0,0,0,0,0,0,0,0,0,0,0,3221225557,0,0,0,0,0,0,0,0,0,0,0,0,0,0,0,0,0,0,0,0,0,0,0,0,0,0,0,0,0,85,0,0,0,0,0,0,0,0,
0,0,0,0,0,0,0,0,0,0,0,3221225557,0,0,0,0,0,0,0,0,0,0,0,0,0,0,0,0,0,0,0,0,0,0,0,0,0,0,0,0,0,85,0,0,0,0,0,0,0,0,
0,0,0,0,0,0,0,0,0,0,0,3221225557,0,0,0,0,0,0,0,0,0,0,0,0,0,0,0,0,0,0,0,0,0,0,0,0,0,0,0,0,0,85,0,0,0,0,0,0,0,0,
0,0,0,0,0,0,0,0,0,0,0,3221225557,0,0,0,0,0,0,0,0,0,0,0,0,0,0,0,0,0,0,0,0,0,0,0,0,0,0,0,0,0,85,0,0,0,0,0,0,0,0,
0,0,0,0,0,0,0,0,0,0,0,3221225557,0,0,0,0,0,0,0,0,0,0,0,0,0,0,0,0,0,0,0,0,0,0,0,0,0,0,0,0,0,85,0,0,0,0,0,0,0,0,
0,0,0,0,0,0,0,0,0,0,0,2147483772,2,2,2,2,2,2,2,2,2,2,3,0,0,1,2,2,2,2,2,2,2,2,2,2,2,2,2,2,2,85,0,0,0,0,0,0,0,0,
0,0,0,0,0,0,0,0,0,0,0,2147483812,42,42,42,42,42,42,42,42,42,42,43,0,0,41,42,42,42,42,42,42,42,42,42,42,42,42,42,42,42,125,0,0,0,0,0,0,0,0,
0,0,0,0,0,0,0,0,0,0,0,2147483852,82,82,82,82,82,82,82,82,82,82,83,0,0,81,82,82,82,82,82,82,82,82,82,82,82,82,82,82,82,165,0,0,0,0,0,0,0,0,
0,0,0,0,0,0,0,0,0,0,0,0,0,0,0,0,0,0,0,0,0,0,0,0,0,0,0,0,0,0,0,0,0,0,0,0,0,0,0,0,0,0,0,0,0,0,0,0,0,0,
0,0,0,0,0,0,0,0,0,0,0,0,0,0,0,0,0,0,0,0,0,0,0,0,0,0,0,0,0,0,0,0,0,0,0,0,0,0,0,0,0,0,0,0,0,0,0,0,0,0,
0,0,0,0,0,0,0,0,0,0,0,0,0,0,0,0,0,0,0,0,0,0,0,0,0,0,0,0,0,0,0,0,0,0,0,0,0,0,0,0,0,0,0,0,0,0,0,0,0,0,
0,0,0,0,0,0,0,0,0,0,0,0,0,0,0,0,0,0,0,0,0,0,0,0,0,0,0,0,0,0,0,0,0,0,0,0,0,0,0,0,0,0,0,0,0,0,0,0,0,0,
0,0,0,0,0,0,0,0,0,0,0,0,0,0,0,0,0,0,0,0,0,0,0,0,0,0,0,0,0,0,0,0,0,0,0,0,0,0,0,0,0,0,0,0,0,0,0,0,0,0,
0,0,0,0,0,0,0,0,0,0,0,0,0,0,0,0,0,0,0,0,0,0,0,0,0,0,0,0,0,0,0,0,0,0,0,0,0,0,0,0,0,0,0,0,0,0,0,0,0,0,
0,0,0,0,0,0,0,0,0,0,0,0,0,0,0,0,0,0,0,0,0,0,0,0,0,0,0,0,0,0,0,0,0,0,0,0,0,0,0,0,0,0,0,0,0,0,0,0,0,0,
0,0,0,0,0,0,0,0,0,0,0,0,0,0,0,0,0,0,0,0,0,0,0,0,0,0,0,0,0,0,0,0,0,0,0,0,0,0,0,0,0,0,0,0,0,0,0,0,0,0,
0,0,0,0,0,0,0,0,0,0,0,0,0,0,0,0,0,0,0,0,0,0,0,0,0,0,0,0,0,0,0,0,0,0,0,0,0,0,0,0,0,0,0,0,0,0,0,0,0,0,
0,0,0,0,0,0,0,0,0,0,0,0,0,0,0,0,0,0,0,0,0,0,0,0,0,0,0,0,0,0,0,0,0,0,0,0,0,0,0,0,0,0,0,0,0,0,0,0,0,0,
0,0,0,0,0,0,0,0,0,0,0,0,0,0,0,0,0,0,0,0,0,0,0,0,0,0,0,0,0,0,0,0,0,0,0,0,0,0,0,0,0,0,0,0,0,0,0,0,0,0,
0,0,0,0,0,0,0,0,0,0,0,0,0,0,0,0,0,0,0,0,0,0,0,0,0,0,0,0,0,0,0,0,0,0,0,0,0,0,0,0,0,0,0,0,0,0,0,0,0,0,
0,0,0,0,0,0,0,0,0,0,0,2147483652,2,2,2,2,2,2,2,2,2,2,3,0,0,1,2,2,2,2,2,2,2,2,2,2,2,2,2,2,2,3,0,0,0,0,0,0,0,0,
0,0,0,0,0,0,0,0,0,0,0,2147483692,42,42,42,42,42,42,42,42,42,42,43,0,0,41,42,42,42,42,42,42,42,42,42,42,42,42,42,42,42,44,0,0,0,0,0,0,0,0,
0,0,0,0,0,0,0,0,0,0,0,2147483732,82,82,82,82,82,82,82,82,82,82,83,0,0,81,82,82,82,82,82,82,82,82,82,82,82,82,82,82,82,84,0,0,0,0,0,0,0,0,
0,0,0,0,0,0,0,0,0,0,0,2147483733,0,0,0,0,0,0,0,0,0,0,0,0,0,0,0,0,0,0,0,0,0,0,0,0,0,0,0,0,0,85,0,0,0,0,0,0,0,0,
0,0,0,0,0,0,0,0,0,0,0,2147483733,0,0,0,0,0,0,0,0,0,0,0,0,0,0,0,0,0,0,0,0,0,0,0,0,0,0,0,0,0,85,0,0,0,0,0,0,0,0,
0,0,0,0,0,0,0,0,0,0,0,2147483733,0,0,0,0,0,0,0,0,0,0,0,0,0,0,0,0,0,0,0,0,0,0,0,0,0,0,0,0,0,85,0,0,0,0,0,0,0,0,
0,0,0,0,0,0,0,0,0,0,0,2147483733,0,0,0,0,0,0,0,0,0,0,0,0,0,0,0,0,0,0,0,0,0,0,0,0,0,0,0,0,0,85,0,0,0,0,0,0,0,0,
0,0,0,0,0,0,0,0,0,0,0,2147483733,0,0,0,0,0,0,0,0,0,0,0,0,0,0,0,0,0,0,0,0,0,0,0,0,0,0,0,0,0,85,0,0,0,0,0,0,0,0,
0,0,0,0,0,0,0,0,0,0,0,2147483733,0,0,0,0,0,0,0,0,0,0,0,0,0,0,0,0,0,0,0,0,0,0,0,0,0,0,0,0,0,85,0,0,0,0,0,0,0,0,
0,0,0,0,0,0,0,0,0,0,0,2147483733,0,0,0,0,0,0,0,0,0,0,0,0,0,0,0,0,0,0,0,0,0,0,0,0,0,0,0,0,0,85,0,0,0,0,0,0,0,0,
0,0,0,0,0,0,0,0,0,0,0,2147483733,0,0,0,0,0,0,0,0,0,0,0,0,0,0,0,0,0,0,0,0,0,0,0,0,0,0,0,0,0,85,0,0,0,0,0,0,0,0,
0,0,0,0,0,0,0,0,0,0,0,2147483733,2,2,2,2,2,2,2,2,2,2,4,0,0,0,0,0,0,0,0,0,0,0,0,0,0,0,0,0,0,85,0,0,0,0,0,0,0,0,
0,0,0,0,0,0,0,0,0,0,0,2147483773,42,42,42,42,42,42,42,42,42,42,44,0,0,2147483652,2,2,2,2,2,2,2,2,2,2,2,2,2,2,2,85,0,0,0,0,0,0,0,0,
0,0,0,0,0,0,0,0,0,0,0,2147483813,82,82,82,82,82,82,82,82,82,82,84,0,0,2147483692,42,42,42,42,42,42,42,42,42,42,42,42,42,42,42,125,0,0,0,0,0,0,0,0,
0,0,0,0,0,0,0,0,0,0,0,0,0,0,0,0,0,0,0,0,0,0,85,0,0,2147483732,82,82,82,82,82,82,82,82,82,82,82,82,82,82,82,165,0,0,0,0,0,0,0,0,
0,0,0,0,0,0,0,0,0,0,0,0,0,0,0,0,0,0,0,0,0,0,85,0,0,2147483733,0,0,0,0,0,0,0,0,0,0,0,0,0,0,0,0,0,0,0,0,0,0,0,0,
0,0,0,0,0,0,0,0,0,0,0,0,0,0,0,0,0,0,0,0,0,0,85,0,0,2147483733,0,0,0,0,0,0,0,0,0,0,0,0,0,0,0,0,0,0,0,0,0,0,0,0,
0,0,0,0,0,0,0,0,0,0,0,0,0,0,0,0,0,0,0,0,0,0,85,0,0,2147483733,0,0,0,0,0,0,0,0,0,0,0,0,0,0,0,0,0,0,0,0,0,0,0,0
</data>
 </layer>
 <layer id="7" name="墙壁挂物" width="50" height="50">
  <data encoding="csv">
0,0,0,0,0,0,0,0,0,0,0,0,0,0,0,0,0,0,0,0,0,0,0,0,0,0,0,0,0,0,0,0,0,0,0,0,0,0,0,0,0,0,0,0,0,0,0,0,0,0,
0,0,0,0,0,0,0,0,0,0,0,0,0,0,0,0,0,0,0,0,0,0,0,0,0,0,0,0,0,0,0,0,0,0,0,0,0,0,0,0,0,0,0,0,0,0,0,0,0,0,
0,0,0,0,0,0,0,0,0,0,0,0,0,0,0,0,0,0,0,0,0,0,0,0,0,0,0,0,0,0,0,0,0,0,0,0,0,0,0,0,0,0,0,0,0,0,0,0,0,0,
0,0,0,0,0,0,0,0,0,0,0,0,0,0,0,0,0,0,0,0,0,0,0,0,0,0,0,0,0,0,0,0,0,0,0,0,0,0,0,0,0,0,0,0,0,0,0,0,0,0,
0,0,0,0,0,0,0,0,0,0,0,0,0,0,0,0,214,0,0,0,0,0,0,0,0,0,0,0,0,0,0,214,0,0,0,0,214,0,0,0,0,0,0,0,0,0,0,0,0,0,
0,0,0,0,0,0,0,0,0,0,0,0,0,0,0,0,254,0,0,0,0,0,0,0,0,0,0,0,0,0,0,254,0,0,0,0,254,0,0,0,0,0,0,0,0,0,0,0,0,0,
0,0,0,0,0,0,0,0,0,0,0,0,0,0,0,0,0,0,0,0,0,0,0,0,0,0,0,0,0,0,0,0,0,0,0,0,0,0,0,0,0,0,0,0,0,0,0,0,0,0,
0,0,0,0,0,0,0,0,0,0,0,0,0,0,0,0,0,0,0,0,0,0,0,0,0,0,0,0,0,0,0,0,0,0,0,0,0,0,0,0,0,0,0,0,0,0,0,0,0,0,
0,0,0,0,0,0,0,0,0,0,0,0,0,0,0,0,0,0,0,0,0,0,0,0,0,0,0,0,0,0,0,0,0,0,0,0,0,0,0,0,0,0,0,0,0,0,0,0,0,0,
0,0,0,0,0,0,0,0,0,0,0,0,0,0,0,0,0,0,0,0,0,0,0,0,0,0,0,0,0,0,0,0,0,0,0,0,0,0,0,0,0,0,0,0,0,0,0,0,0,0,
0,0,0,0,0,0,0,0,0,0,0,0,0,0,0,0,0,0,0,0,0,0,0,0,0,0,0,0,0,0,0,0,0,0,0,0,0,0,0,0,0,0,0,0,0,0,0,0,0,0,
0,0,0,0,0,0,0,0,0,0,0,0,0,0,0,0,0,0,0,0,0,0,0,0,0,0,0,0,0,0,0,0,0,0,0,0,0,0,0,0,0,0,0,0,0,0,0,0,0,0,
0,0,0,0,0,0,0,0,0,0,0,0,0,0,0,0,0,0,0,0,0,0,0,0,0,0,0,0,0,0,0,0,0,0,0,0,0,0,0,0,0,0,0,0,0,0,0,0,0,0,
0,0,0,0,0,0,0,0,0,0,0,0,0,0,0,0,0,0,0,0,0,0,0,0,0,0,0,0,0,0,0,0,0,0,0,0,0,0,0,0,0,0,0,0,0,0,0,0,0,0,
0,0,0,0,0,0,0,0,0,0,0,0,0,0,0,0,0,0,0,0,0,0,0,0,0,0,0,0,0,0,0,0,0,0,0,0,0,0,0,0,0,0,0,0,0,0,0,0,0,0,
0,0,0,0,0,0,0,0,0,0,0,0,0,0,0,0,0,0,0,0,0,0,0,0,0,0,0,0,0,0,0,0,0,0,0,0,0,0,0,0,0,0,0,0,0,0,0,0,0,0,
0,0,0,0,0,0,0,0,0,0,0,0,0,0,0,0,0,0,0,0,0,0,0,0,0,0,0,0,0,0,0,0,0,0,0,0,0,0,0,0,0,0,0,0,0,0,0,0,0,0,
0,0,0,0,0,0,0,0,0,0,0,0,0,0,0,0,0,0,0,0,0,0,0,0,0,0,0,0,0,0,0,0,0,0,0,0,0,0,0,0,0,0,0,0,0,0,0,0,0,0,
0,0,0,0,0,0,0,0,0,0,0,0,0,0,0,0,214,0,0,0,0,0,0,0,0,0,0,0,0,0,0,214,0,0,0,0,214,0,0,0,0,0,0,0,0,0,0,0,0,0,
0,0,0,0,0,0,0,0,0,0,0,0,0,0,0,0,254,0,0,0,0,0,0,0,0,0,0,0,0,0,0,254,0,0,0,0,254,0,0,0,0,0,0,0,0,0,0,0,0,0,
0,0,0,0,0,0,0,0,0,0,0,0,0,0,0,0,0,0,0,0,0,0,0,0,0,0,0,0,0,0,0,0,0,0,0,0,0,0,0,0,0,0,0,0,0,0,0,0,0,0,
0,0,0,0,0,0,0,0,0,0,0,0,0,0,0,0,0,0,0,0,0,0,0,0,0,0,0,0,0,0,0,0,0,0,0,0,0,0,0,0,0,0,0,0,0,0,0,0,0,0,
0,0,0,0,0,0,0,0,0,0,0,0,0,0,0,0,0,0,0,0,0,0,0,0,0,0,0,0,0,0,0,0,0,0,0,0,0,0,0,0,0,0,0,0,0,0,0,0,0,0,
0,0,0,0,0,0,0,0,0,0,0,0,0,0,0,0,0,0,0,0,0,0,0,0,0,0,0,0,0,0,0,0,0,0,0,0,0,0,0,0,0,0,0,0,0,0,0,0,0,0,
0,0,0,0,0,0,0,0,0,0,0,0,0,0,0,0,0,0,0,0,0,0,0,0,0,0,0,0,0,0,0,0,0,0,0,0,0,0,0,0,0,0,0,0,0,0,0,0,0,0,
0,0,0,0,0,0,0,0,0,0,0,0,0,0,0,0,0,0,0,0,0,0,0,0,0,0,0,0,0,0,0,0,0,0,0,0,0,0,0,0,0,0,0,0,0,0,0,0,0,0,
0,0,0,0,0,0,0,0,0,0,0,0,0,0,0,0,0,0,0,0,0,0,0,0,0,0,0,0,0,0,0,0,0,0,0,0,0,0,0,0,0,0,0,0,0,0,0,0,0,0,
0,0,0,0,0,0,0,0,0,0,0,0,0,0,0,0,0,0,0,0,0,0,0,0,0,0,0,0,0,0,0,0,0,0,0,0,0,0,0,0,0,0,0,0,0,0,0,0,0,0,
0,0,0,0,0,0,0,0,0,0,0,0,0,0,0,0,0,0,0,0,0,0,0,0,0,0,0,0,0,0,0,0,0,0,0,0,0,0,0,0,0,0,0,0,0,0,0,0,0,0,
0,0,0,0,0,0,0,0,0,0,0,0,0,0,0,0,0,0,0,0,0,0,0,0,0,0,0,0,0,0,0,0,0,0,0,0,0,0,0,0,0,0,0,0,0,0,0,0,0,0,
0,0,0,0,0,0,0,0,0,0,0,0,0,0,0,0,0,0,0,0,0,0,0,0,0,0,0,0,0,0,0,0,0,0,0,0,0,0,0,0,0,0,0,0,0,0,0,0,0,0,
0,0,0,0,0,0,0,0,0,0,0,0,0,0,0,0,0,0,0,0,0,0,0,0,0,0,0,0,0,0,0,0,0,0,0,0,0,0,0,0,0,0,0,0,0,0,0,0,0,0,
0,0,0,0,0,0,0,0,0,0,0,0,0,0,0,0,0,0,0,0,0,0,0,0,0,0,0,0,0,0,0,0,0,0,0,0,0,0,0,0,0,0,0,0,0,0,0,0,0,0,
0,0,0,0,0,0,0,0,0,0,0,0,0,0,0,0,214,0,0,0,0,0,0,0,0,0,0,0,0,0,0,214,0,0,0,0,0,214,0,0,0,0,0,0,0,0,0,0,0,0,
0,0,0,0,0,0,0,0,0,0,0,0,0,0,0,0,254,0,0,0,0,0,0,0,0,0,0,0,0,0,0,254,0,0,0,0,0,254,0,0,0,0,0,0,0,0,0,0,0,0,
0,0,0,0,0,0,0,0,0,0,0,0,0,0,0,0,0,0,0,0,0,0,0,0,0,0,0,0,0,0,0,0,0,0,0,0,0,0,0,0,0,0,0,0,0,0,0,0,0,0,
0,0,0,0,0,0,0,0,0,0,0,0,0,0,0,0,0,0,0,0,0,0,0,0,0,0,0,0,0,0,0,0,0,0,0,0,0,0,0,0,0,0,0,0,0,0,0,0,0,0,
0,0,0,0,0,0,0,0,0,0,0,0,0,0,0,0,0,0,0,0,0,0,0,0,0,0,0,0,0,0,0,0,0,0,0,0,0,0,0,0,0,0,0,0,0,0,0,0,0,0,
0,0,0,0,0,0,0,0,0,0,0,0,0,0,0,0,0,0,0,0,0,0,0,0,0,0,0,0,0,0,0,0,0,0,0,0,0,0,0,0,0,0,0,0,0,0,0,0,0,0,
0,0,0,0,0,0,0,0,0,0,0,0,0,0,0,0,0,0,0,0,0,0,0,0,0,0,0,0,0,0,0,0,0,0,0,0,0,0,0,0,0,0,0,0,0,0,0,0,0,0,
0,0,0,0,0,0,0,0,0,0,0,0,0,0,0,0,0,0,0,0,0,0,0,0,0,0,0,0,0,0,0,0,0,0,0,0,0,0,0,0,0,0,0,0,0,0,0,0,0,0,
0,0,0,0,0,0,0,0,0,0,0,0,0,0,0,0,0,0,0,0,0,0,0,0,0,0,0,0,0,0,0,0,0,0,0,0,0,0,0,0,0,0,0,0,0,0,0,0,0,0,
0,0,0,0,0,0,0,0,0,0,0,0,0,0,0,0,0,0,0,0,0,0,0,0,0,0,0,0,0,0,0,0,0,0,0,0,0,0,0,0,0,0,0,0,0,0,0,0,0,0,
0,0,0,0,0,0,0,0,0,0,0,0,0,0,0,0,0,0,0,0,0,0,0,0,0,0,0,0,0,0,0,0,0,0,0,0,0,0,0,0,0,0,0,0,0,0,0,0,0,0,
0,0,0,0,0,0,0,0,0,0,0,0,0,0,0,0,214,0,0,0,0,0,0,0,0,0,0,0,0,0,0,0,0,0,0,0,0,0,0,0,0,0,0,0,0,0,0,0,0,0,
0,0,0,0,0,0,0,0,0,0,0,0,0,0,0,0,254,0,0,0,0,0,0,0,0,0,0,0,0,0,0,214,0,0,0,0,0,0,214,0,0,0,0,0,0,0,0,0,0,0,
0,0,0,0,0,0,0,0,0,0,0,0,0,0,0,0,0,0,0,0,0,0,0,0,0,0,0,0,0,0,0,254,0,0,0,0,0,0,254,0,0,0,0,0,0,0,0,0,0,0,
0,0,0,0,0,0,0,0,0,0,0,0,0,0,0,0,0,0,0,0,0,0,0,0,0,0,0,0,0,0,0,0,0,0,0,0,0,0,0,0,0,0,0,0,0,0,0,0,0,0,
0,0,0,0,0,0,0,0,0,0,0,0,0,0,0,0,0,0,0,0,0,0,0,0,0,0,0,0,0,0,0,0,0,0,0,0,0,0,0,0,0,0,0,0,0,0,0,0,0,0,
0,0,0,0,0,0,0,0,0,0,0,0,0,0,0,0,0,0,0,0,0,0,0,0,0,0,0,0,0,0,0,0,0,0,0,0,0,0,0,0,0,0,0,0,0,0,0,0,0,0
</data>
 </layer>
 <objectgroup id="5" name="对象层"/>
 <layer id="4" name="高层物品" width="50" height="50">
  <data encoding="csv">
0,0,0,0,0,0,0,0,0,0,0,0,0,0,0,0,0,0,0,0,0,0,0,0,0,0,0,0,0,0,0,0,0,0,0,0,0,0,0,0,0,0,0,0,0,0,0,0,0,0,
0,0,0,0,0,0,0,0,0,0,0,0,0,0,0,0,0,0,0,0,0,0,0,0,0,0,0,0,0,0,0,0,0,0,0,0,0,0,0,0,0,0,0,0,0,0,0,0,0,0,
0,0,0,0,0,0,0,0,0,0,0,0,0,0,0,0,0,0,0,0,0,0,0,0,0,0,0,0,0,0,0,0,0,0,0,0,0,0,0,0,0,0,0,0,0,25,26,0,0,0,
0,0,0,0,0,0,0,0,0,0,0,0,0,0,0,0,0,0,0,0,0,0,0,0,0,0,0,0,0,0,0,0,0,0,0,0,0,0,0,0,0,0,0,0,0,65,66,0,384,0,
0,384,0,0,0,0,0,0,0,0,0,0,0,0,0,0,0,0,0,0,0,345,0,0,0,0,0,345,0,0,0,0,0,0,0,0,0,0,0,0,0,0,0,0,0,105,106,0,0,0,
0,0,0,0,0,0,0,0,384,0,0,0,0,0,0,0,0,0,0,0,0,385,0,0,0,0,0,385,0,0,0,0,0,0,0,0,0,0,0,0,0,0,0,0,0,145,146,0,0,0,
0,0,0,0,0,0,0,0,0,0,0,0,0,0,0,0,0,0,0,0,0,0,0,0,0,0,0,0,0,0,0,0,0,0,0,0,0,0,0,0,0,0,0,0,0,0,0,0,0,0,
0,0,0,0,0,0,0,0,0,0,0,0,0,0,0,0,30,31,0,0,0,0,0,0,0,0,0,0,0,0,0,0,0,0,0,0,0,0,0,0,0,0,0,0,0,0,0,0,0,0,
0,0,0,22,23,24,0,0,0,0,0,0,0,0,0,0,70,71,0,0,0,0,0,0,0,0,0,0,0,0,0,0,0,0,0,0,0,0,0,0,0,0,0,0,0,0,0,0,0,0,
0,0,0,62,63,64,0,0,0,0,0,0,0,0,0,0,0,0,0,0,0,0,0,0,0,0,0,0,0,0,0,0,0,0,0,0,0,0,0,0,0,0,0,0,0,0,0,0,0,0,
0,0,0,102,103,104,0,0,0,0,0,0,0,0,0,0,0,0,0,0,0,0,0,0,0,0,0,0,0,0,0,218,219,220,221,0,0,0,0,0,0,0,0,0,0,0,0,0,0,0,
0,0,0,142,143,144,0,0,0,0,0,0,0,0,0,0,0,0,0,0,0,0,0,0,0,0,0,0,0,0,0,258,259,260,261,0,0,0,0,0,0,0,0,0,0,0,0,0,0,0,
0,0,0,0,0,0,0,0,0,0,0,0,0,0,0,0,226,227,228,229,230,0,0,0,0,0,0,0,0,0,0,298,299,300,301,0,0,0,0,0,0,0,0,0,0,0,0,0,0,0,
0,0,0,0,0,0,0,0,0,0,0,0,0,0,0,0,266,267,268,269,270,0,0,0,0,0,0,0,0,0,0,338,339,340,341,0,0,0,0,0,0,0,0,0,0,0,0,0,0,0,
0,0,0,0,0,0,0,0,0,0,0,0,0,0,0,0,306,307,308,309,310,0,0,0,0,0,0,0,0,0,0,0,0,0,0,0,0,0,0,0,0,0,12,0,0,0,0,0,0,0,
0,0,0,0,0,0,0,0,0,0,0,0,0,0,0,0,346,347,348,349,350,0,0,0,0,0,0,0,0,0,0,0,0,0,0,0,0,0,0,0,0,0,52,0,0,0,0,0,0,0,
0,0,0,0,0,0,0,0,0,0,0,0,0,0,0,0,0,0,0,0,0,0,0,0,0,0,0,0,0,0,0,0,0,0,0,0,0,0,0,0,0,0,0,0,0,0,0,0,0,0,
0,0,0,0,0,0,0,0,0,0,0,0,0,0,0,0,0,0,0,0,0,0,0,0,0,0,0,0,0,0,0,0,0,0,0,0,0,0,0,0,0,0,0,0,0,0,0,0,0,0,
0,0,0,0,0,0,0,0,0,0,0,0,0,0,0,0,0,0,0,0,0,0,0,0,0,0,0,0,0,0,0,0,0,0,0,0,0,0,0,0,0,0,0,0,0,0,0,0,0,0,
0,0,0,0,0,0,0,0,0,0,0,0,0,0,0,0,0,0,0,0,0,0,0,0,0,0,0,0,0,0,0,0,0,0,0,0,0,0,0,0,0,0,0,0,0,0,0,0,0,0,
0,0,0,0,0,0,0,0,0,0,0,0,0,0,0,0,0,0,0,0,0,0,0,0,0,0,0,0,0,0,0,0,0,0,0,0,0,0,0,0,0,0,0,0,0,0,0,30,31,0,
0,0,0,0,0,0,0,0,0,0,0,0,0,0,0,0,0,0,0,0,0,0,0,0,0,0,0,0,0,0,0,0,0,0,0,0,384,0,0,0,0,0,0,0,0,0,0,70,71,0,
0,0,0,0,0,0,0,0,0,0,0,0,0,0,0,0,0,0,0,0,0,0,0,0,0,0,0,0,0,0,0,0,0,0,0,0,0,0,0,0,0,0,0,0,0,0,0,0,0,0,
0,0,0,0,0,0,0,0,0,0,0,0,0,0,0,0,0,0,0,0,0,0,0,0,0,0,0,0,0,0,0,0,0,0,0,0,0,0,0,0,0,0,0,0,0,0,0,0,0,0,
0,0,0,0,0,0,0,0,0,0,0,0,0,0,0,0,0,0,0,0,0,0,0,0,0,0,0,0,0,0,0,6,7,8,9,10,11,0,0,0,0,0,0,0,0,0,0,0,0,0,
0,0,0,0,0,0,0,0,0,0,0,0,0,0,0,0,0,0,0,0,0,0,0,0,0,0,0,0,0,0,0,46,47,48,49,50,51,0,0,0,0,0,0,0,0,0,0,0,0,0,
0,0,0,0,0,0,0,0,0,0,0,0,0,0,0,18,19,20,21,0,0,0,0,0,0,0,0,0,0,0,0,86,87,88,89,90,91,0,0,0,0,0,0,0,0,0,0,0,0,0,
0,0,0,0,0,0,0,0,0,0,0,0,0,0,0,58,59,60,61,0,0,0,0,0,0,0,0,0,0,0,0,126,127,128,129,130,131,0,0,0,0,0,0,0,0,0,0,0,0,0,
0,0,0,0,0,0,222,223,224,0,0,0,0,0,0,98,99,100,101,0,0,0,0,0,0,0,0,0,0,0,0,166,167,168,169,170,171,0,0,0,0,0,0,0,0,0,0,0,0,0,
0,0,0,0,0,0,262,263,264,0,0,0,0,0,0,138,139,140,141,0,0,0,0,0,0,0,0,0,0,0,0,0,0,0,0,0,0,0,0,0,0,0,0,0,0,0,0,0,0,0,
0,0,0,0,0,0,302,303,304,0,0,0,0,0,0,0,0,0,0,0,0,0,0,0,0,0,0,0,0,0,0,0,0,0,0,0,0,0,0,0,0,0,0,0,0,0,0,0,0,0,
0,0,0,0,0,0,0,0,0,0,0,0,0,0,0,0,0,0,0,0,0,0,0,0,0,0,0,0,0,0,0,0,0,0,0,0,0,0,0,0,0,0,0,0,0,0,0,0,0,0,
0,0,0,0,0,0,0,0,0,0,0,0,0,0,0,0,0,0,0,0,0,0,0,0,0,0,0,0,0,0,0,0,0,0,0,0,0,0,0,0,0,0,0,0,0,0,0,0,0,0,
0,0,0,0,0,0,0,0,0,0,0,0,0,0,0,0,0,0,0,0,0,345,0,0,0,0,345,0,0,0,0,0,0,0,0,0,0,0,0,0,0,0,0,0,0,0,0,0,0,0,
0,0,0,0,0,0,0,0,0,0,0,0,0,0,0,0,0,0,0,0,0,385,0,0,0,0,385,0,0,0,0,0,0,0,0,0,0,0,0,0,0,0,0,0,0,0,0,0,0,0,
0,0,0,0,0,0,0,0,0,0,0,0,0,0,0,0,0,0,0,0,0,0,0,0,0,0,0,0,0,0,0,0,0,0,0,0,0,0,0,0,0,0,0,0,0,0,0,0,0,0,
0,0,0,0,0,0,0,0,0,0,0,0,0,0,0,0,0,0,0,0,0,0,0,0,0,0,0,0,0,0,0,0,0,0,0,0,0,0,0,0,0,0,0,0,0,0,0,0,0,0,
0,0,0,0,0,0,0,0,0,0,0,0,0,0,0,0,0,0,0,0,0,0,0,0,0,0,0,0,0,0,460,461,462,463,464,465,0,0,0,0,0,0,0,0,0,0,0,0,0,0,
0,0,0,0,22,23,24,0,0,384,0,0,0,0,0,0,226,227,228,229,230,0,0,0,0,0,0,0,0,499,500,501,502,503,504,505,506,0,0,0,0,0,0,0,0,0,0,0,0,0,
0,0,0,0,62,63,64,0,0,0,0,0,0,0,0,0,266,267,268,269,270,0,0,0,0,0,0,0,0,539,540,541,542,543,544,545,546,0,0,0,0,0,0,0,0,0,25,26,0,0,
0,0,0,0,102,103,104,0,0,0,0,0,0,0,0,0,306,307,308,309,310,0,0,0,0,0,0,0,0,0,580,581,582,583,584,585,0,0,0,0,0,0,0,384,0,0,65,66,0,0,
0,0,0,0,142,143,144,0,0,0,0,0,0,0,0,0,346,347,348,349,350,0,0,0,0,0,0,0,0,0,620,621,622,623,624,625,0,0,0,0,0,0,0,0,0,0,105,106,0,0,
0,0,0,0,0,0,0,0,0,0,0,0,0,0,0,0,0,0,0,0,0,0,0,0,0,0,0,0,0,0,0,0,0,0,0,0,0,0,0,0,0,0,0,0,0,0,145,146,0,0,
0,0,0,0,0,0,0,0,0,0,0,0,0,0,0,0,0,0,0,0,0,0,0,0,0,0,0,0,0,0,0,0,0,0,0,0,0,0,0,0,0,0,0,0,0,0,0,0,0,0,
0,0,0,0,0,0,0,0,0,0,0,0,0,0,0,0,0,0,0,0,0,0,0,0,0,0,0,0,0,0,0,0,0,0,0,0,0,0,0,0,0,0,0,0,0,0,0,0,0,0,
0,0,0,0,0,0,0,0,0,0,0,0,0,0,0,0,0,0,0,0,0,0,0,0,0,0,0,0,0,0,0,0,0,0,0,0,0,0,0,0,0,0,0,0,0,0,0,0,0,0,
0,0,0,0,0,0,0,0,0,0,0,0,0,0,0,0,0,0,0,0,0,0,0,0,0,0,0,0,0,0,0,0,0,0,0,0,33,0,0,0,0,0,0,0,0,0,0,0,0,0,
0,0,0,0,0,0,0,0,0,0,0,0,0,0,0,0,0,33,0,0,0,225,0,0,0,0,225,0,0,0,0,0,0,0,0,0,73,0,0,0,0,0,0,0,0,0,0,0,0,0,
0,0,0,0,0,0,0,0,0,0,0,0,0,0,0,0,0,73,0,0,0,265,0,0,0,0,265,0,0,0,0,0,0,0,0,0,0,0,0,0,0,0,0,0,0,0,0,0,0,0,
0,0,0,0,0,0,0,0,0,0,0,0,0,0,0,0,0,0,0,0,0,0,0,0,0,0,0,0,0,0,0,0,0,0,0,0,0,0,0,0,0,0,0,0,0,0,0,0,0,0
</data>
 </layer>
</map>
